X:1
T:Title
%%score 1 2
L:1/8
Q:1/4=105
M:4/4
K:Bb
V:1 treble nm="Grand Piano, Soprano"
V:2 bass nm="Choir Pad, Mother�s Grave"
V:1
 [DF][DF] [DF]2 [DB]2 [DB]2- | [DB][Ec] [EB]2 [EA]2 z2 | [EG][EF] [CA]2 [EG]2 [EF]2 | [Ec]2 [DB]6 | %4
w: By~Charles~Davis~Tillman * * * *||||
 [DF][DF] [DF]2 [DB]2 [DB]2- | [DB][Ec] [EB]2 [EA]2 z2 | [EG][EF] [CA]2 [EG]2 [EF]2 | [Ec]2 [DB]6 | %8
w: ||||
 [Fd][Ec] [DB]2 [DF]2 [DB]2 | [Fd]2 [Fd]2 [Fc]2 z2 | [Ge][Fd] [Ec]2 [D=B]2 [Ec]2 | %11
w: |||
 [=E_d]2 [F=d]4 [Ff]2- | [Ff][Fd] [DB]2 [DF]2 [DB]2- | [DB][FA] [FA]2 [EG]4 | %14
w: |||
 [_DG][DG] [=DF]2 [DB]2 [EB]2- | [EB][Ec] [DB]4 [Fd]2- | [Fd][Ec] [Ec]2 [DB]2 [DB]2- | %17
w: |||
 [DB][Ec] [EB]2 [EA]4 | [EG]F [Fe]2 [Ge]2 [Ae]2 | [Ge]2 [Fd]4 [Ff]2- | %20
w: |||
 [Ff][Fd] [DB]2 [DF]2 [DB]2- | [DB][FA] [FA]2 [EG]4 | [_DB][DB][=DB][Fd]- [Fd][DF] [Ec]2- | %23
w: |||
 [Ec][DB] [DB]6- | [DB]2 z2 z4 |] %25
w: ||
V:2
 [B,,B,][B,,B,] [B,,B,]2 [B,,F,]2 [B,,F,]2- | [B,,F,][B,,F,] [C,F,]2 [C,F,]2 z2 | %2
 [C,F,][C,F,] F,2 [F,A,]2 [F,A,]2 | [F,A,]2 [B,,B,]6 | [B,,B,][B,,B,] [B,,B,]2 [B,,F,]2 [B,,F,]2- | %5
 [B,,F,][B,,F,] [C,F,]2 [C,F,]2 z2 | [C,F,][C,F,] F,2 [F,A,]2 [F,A,]2 | [F,A,]2 [B,,B,]6 | %8
 [B,,B,][B,,B,] [B,,F,]2 [B,,B,]2 [B,,F,]2 | [F,B,]2 [F,B,]2 [F,A,]2 z2 | %10
 [F,A,][F,A,] [F,A,]2 [F,A,]2 [F,A,]2 | [F,A,]2 [B,,B,]4 [B,,B,]2- | %12
 [B,,B,][B,,B,] [B,,F,]2 [B,,B,]2 [B,,F,]2- | [B,,F,][D,B,] [E,B,]2 [E,B,]4 | %14
 [=E,B,][E,B,] [F,B,]2 F,2 F,2- | F,F, [B,,F,]4 [B,,B,]2- | %16
 [B,,B,][B,,B,] [B,,B,]2 [B,,F,]2 [B,,F,]2- | [B,,F,][B,,F,] [C,F,]2 [C,F,]4 | %18
 [C,B,][C,B,] [F,A,]2 [F,B,]2 [F,C]2 | [F,B,]2 [B,,B,]4 [B,,B,]2- | %20
 [B,,B,][B,,B,] [B,,F,]2 [B,,B,]2 [B,,F,]2- | [B,,F,][D,B,] [E,B,]2 [E,B,]4 | %22
 [=E,G,][E,G,] [F,B,]2- [F,B,][F,B,] [F,A,]2- | [F,A,][B,,F,] [B,,F,]6- | [B,,F,]2 z2 z4 |] %25

